X: 2
T:Blue-Eyed Stranger, Winster (Stick)
M:4/4
L:1/4
A:Winster
P:A(AB4)A4
K:D
P:A
z|d2e2|fdd2|Bcec|BAA2|\
d2e2|fde2|Bcec|d3 ||
P:B
|:A|FAAG|FAAG|FAde|e3 :|
